assets/images/img_eye_crossed_out.svg

<svg width="24" height="24" viewBox="0 0 24 24" fill="none" xmlns="http://www.w3.org/2000/svg">
<path d="M12 16.9963C13.3261 16.9963 14.5979 16.4695 15.5355 15.5318C16.4732 14.5941 17 13.3224 17 11.9963C17.0013 11.0285 16.7159 10.0821 16.18 9.27628L19.76 5.70628C19.8532 5.61304 19.9272 5.50235 19.9777 5.38053C20.0281 5.25871 20.0541 5.12814 20.0541 4.99628C20.0541 4.86442 20.0281 4.73385 19.9777 4.61203C19.9272 4.49021 19.8532 4.37952 19.76 4.28628C19.6668 4.19304 19.5561 4.11908 19.4342 4.06862C19.3124 4.01816 19.1819 3.99219 19.05 3.99219C18.9181 3.99219 18.7876 4.01816 18.6658 4.06862C18.5439 4.11908 18.4332 4.19304 18.34 4.28628L14.72 7.86628C13.9142 7.33034 12.9677 7.04502 12 7.04628C10.6826 7.05945 9.42364 7.59205 8.49674 8.52831C7.56985 9.46456 7.04993 10.7288 7.05 12.0463C7.04874 13.014 7.33406 13.9605 7.87 14.7663L4.29 18.2863C4.1017 18.4746 3.99591 18.73 3.99591 18.9963C3.99591 19.2626 4.1017 19.518 4.29 19.7063C4.4783 19.8946 4.7337 20.0004 5 20.0004C5.2663 20.0004 5.5217 19.8946 5.71 19.7063L9.28 16.1263C10.0802 16.6799 11.0271 16.9828 12 16.9963ZM15.05 11.9963C15.0624 12.5163 14.9394 13.0307 14.693 13.4888C14.4465 13.947 14.0852 14.3332 13.6445 14.6095C13.2038 14.8859 12.6988 15.0428 12.179 15.0651C11.6593 15.0873 11.1427 14.974 10.68 14.7363L14.68 10.7363C14.8934 11.1244 15.0196 11.5544 15.05 11.9963ZM9 11.9963C8.9876 11.4762 9.11064 10.9619 9.35705 10.5037C9.60345 10.0456 9.96476 9.65939 10.4055 9.38305C10.8462 9.10671 11.3512 8.94972 11.871 8.92749C12.3907 8.90527 12.9073 9.01857 13.37 9.25628L9.37 13.2563C9.15664 12.8681 9.03038 12.4382 9 11.9963ZM3.3 15.9963C2.68493 15.3967 2.14437 14.7252 1.69 13.9963C1.27774 13.4071 1.03872 12.7143 1 11.9963C1.01138 11.5525 1.11706 11.1161 1.31 10.7163C1.51755 10.2777 1.76528 9.85921 2.05 9.46628C2.75797 8.54182 3.58132 7.71174 4.5 6.99628C6.60028 5.19576 9.23737 4.14092 12 3.99628C12.7552 3.9988 13.5074 4.09282 14.24 4.27628C14.3718 4.30352 14.4967 4.35708 14.6073 4.43376C14.7179 4.51044 14.8119 4.60865 14.8837 4.72252C14.9554 4.83639 15.0034 4.96356 15.0248 5.09643C15.0463 5.2293 15.0406 5.36512 15.0083 5.49576C14.976 5.6264 14.9176 5.74918 14.8367 5.85673C14.7558 5.96428 14.6541 6.05439 14.5375 6.12167C14.4209 6.18894 14.292 6.232 14.1584 6.24826C14.0248 6.26452 13.8893 6.25364 13.76 6.21628C13.1839 6.07486 12.5932 6.00103 12 5.99628C10.4989 6.04308 9.03247 6.45864 7.73 7.20628C6.45659 7.90664 5.30226 8.80445 4.31 9.86628C3.8406 10.3592 3.44636 10.9185 3.14 11.5263C3.06869 11.6745 3.02143 11.8332 3 11.9963C3.05785 12.3349 3.19114 12.6562 3.39 12.9363C3.76294 13.5188 4.20258 14.0557 4.7 14.5363C4.89361 14.7219 5.00554 14.9769 5.01116 15.2451C5.01679 15.5132 4.91565 15.7727 4.73 15.9663C4.54435 16.1599 4.28939 16.2718 4.02121 16.2774C3.75304 16.2831 3.49361 16.1819 3.3 15.9963ZM23 11.9963C22.9886 12.4401 22.8829 12.8764 22.69 13.2763C22.4984 13.713 22.2674 14.1314 22 14.5263C21.2766 15.4539 20.4363 16.2841 19.5 16.9963C17.3997 18.7968 14.7626 19.8516 12 19.9963C11.2448 19.9938 10.4926 19.8997 9.76 19.7163C9.51165 19.6445 9.30074 19.4794 9.17151 19.2555C9.04228 19.0316 9.00478 18.7663 9.06687 18.5154C9.12896 18.2645 9.28581 18.0473 9.50453 17.9095C9.72325 17.7717 9.98684 17.724 10.24 17.7763C10.8161 17.9177 11.4068 17.9915 12 17.9963C13.5011 17.9495 14.9675 17.5339 16.27 16.7863C17.5434 16.0859 18.6977 15.1881 19.69 14.1263C20.1594 13.6334 20.5536 13.0741 20.86 12.4663C20.9313 12.318 20.9786 12.1594 21 11.9963C20.966 11.6783 20.8563 11.3731 20.68 11.1063C20.36 10.5647 19.9624 10.0728 19.5 9.64628C19.307 9.46561 19.1933 9.21584 19.184 8.9516C19.1746 8.68736 19.2702 8.43017 19.45 8.23628C19.6307 8.04323 19.8804 7.9296 20.1447 7.92023C20.4089 7.91086 20.6661 8.00652 20.86 8.18628C21.4719 8.74953 21.9976 9.39984 22.42 10.1163C22.7631 10.6866 22.9621 11.3318 23 11.9963Z" fill="#BABCC4"/>
</svg>

<svg xmlns="http://www.w3.org/2000/svg" width="24" height="24" fill="none" viewBox="0 0 24 24"><path fill="#BABCC4" d="M12 16.996a5 5 0 0 0 5-5 4.9 4.9 0 0 0-.82-2.72l3.58-3.57a1.005 1.005 0 0 0-.71-1.714 1.004 1.004 0 0 0-.71.294l-3.62 3.58a4.9 4.9 0 0 0-2.72-.82 5 5 0 0 0-4.95 5 4.9 4.9 0 0 0 .82 2.72l-3.58 3.52a1.004 1.004 0 0 0 1.42 1.42l3.57-3.58a4.9 4.9 0 0 0 2.72.87Zm3.05-5a3 3 0 0 1-4.37 2.74l4-4c.213.388.34.818.37 1.26Zm-6.05 0a3 3 0 0 1 4.37-2.74l-4 4a3.05 3.05 0 0 1-.37-1.26Zm-5.7 4a10.692 10.692 0 0 1-1.61-2 3.85 3.85 0 0 1-.69-2 3.13 3.13 0 0 1 .31-1.28 7.86 7.86 0 0 1 .74-1.25 13.65 13.65 0 0 1 2.45-2.47 12.53 12.53 0 0 1 7.5-3 9.35 9.35 0 0 1 2.24.28 1 1 0 1 1-.48 1.94 7.64 7.64 0 0 0-1.76-.22 9.15 9.15 0 0 0-4.27 1.21 13.75 13.75 0 0 0-3.42 2.66 6.93 6.93 0 0 0-1.17 1.66 1.55 1.55 0 0 0-.14.47c.058.339.191.66.39.94a8.89 8.89 0 0 0 1.31 1.6 1.011 1.011 0 1 1-1.4 1.46Zm19.7-4c-.011.444-.117.88-.31 1.28a7.867 7.867 0 0 1-.69 1.25 13.65 13.65 0 0 1-2.5 2.47 12.53 12.53 0 0 1-7.5 3 9.352 9.352 0 0 1-2.24-.28 1 1 0 0 1 .48-1.94 7.643 7.643 0 0 0 1.76.22 9.15 9.15 0 0 0 4.27-1.21 13.753 13.753 0 0 0 3.42-2.66 6.931 6.931 0 0 0 1.17-1.66 1.55 1.55 0 0 0 .14-.47 2 2 0 0 0-.32-.89 6.45 6.45 0 0 0-1.18-1.46 1 1 0 0 1-.05-1.41 1 1 0 0 1 1.41-.05 8.47 8.47 0 0 1 1.56 1.93 4.1 4.1 0 0 1 .58 1.88Z"/></svg>
